X: 21146
T: Kate Martin's
R: waltz
M: 3/4
K: Gmajor
GA|:B2 BA Bg|e2 ed GA|AB B4|B4 GA|B2 BA Bg|e4 dB|
BA AG AB|A4 GA|B2 BA Bg|e2 ed GA|Bd dB de|d4 GA|
B2 BA Bg|A2 AG G/A/B|1 AG G4|G2 GF GA:|2 AG G4|G2 GA Bd||
e2 ed eg|ed d2 GA|Bd dB de|d4 Bd|e2 ed eg|ed d2 db|
BA A4|A4 gG|d2 dg gG|e2 eg gG|d2 dB de|d4 GA|
B2 BA Bg|A2 AG G/A/B|AG G4|G2 GA Bd|e2 ed eg|ed d2 GA|
Bd dB de|d4 Bd|e2 ed e/f/g|ed d2 e/f/g|a4 fe|d2 g g2 G|
Bd dB gG|ce eG gG|Bd dB de|d4 GA|B2 BA Bg|A2 AG G/A/B|AG G4|G4||

